z_dist/img/icons/crypto/anchor-protocol-ANC.svg

<svg width="64" height="64" viewBox="0 0 64 64" fill="none" xmlns="http://www.w3.org/2000/svg">
<rect width="64" height="64" rx="4" fill="#1E1E1E"/>
<path opacity="0.4" d="M50.2051 38.683C51.314 40.5856 51.3188 42.9364 50.2177 44.8436C49.1166 46.7507 47.0784 47.922 44.8762 47.913C42.6741 47.904 40.6455 46.7162 39.56 44.8001L26.6768 22.4872C24.9874 19.5476 26.0009 15.7951 28.9405 14.1057C31.88 12.4164 35.6325 13.4298 37.3219 16.3694L50.2051 38.683Z" fill="#4BDB4B"/>
<path opacity="0.8" d="M24.4428 44.8C22.7423 47.7162 19.0066 48.7128 16.0796 47.031C13.1525 45.3492 12.1321 41.62 13.7951 38.6823L26.677 16.3699C27.7578 14.4441 29.7895 13.2471 31.9978 13.2352C34.2061 13.2233 36.2507 14.3982 37.3522 16.3122C38.4538 18.2262 38.4425 20.5843 37.3228 22.4877L24.4428 44.8Z" fill="#4BDB4B"/>
<path d="M37.2865 16.3079C37.2155 16.1869 37.1387 16.0711 37.0606 15.9565C37.0229 15.9015 36.987 15.8452 36.9473 15.7914C36.8712 15.6871 36.7893 15.5885 36.7073 15.4906C36.6574 15.4304 36.6094 15.369 36.5569 15.3108C36.4827 15.2288 36.4046 15.1527 36.3272 15.0752C36.2497 14.9978 36.1915 14.9383 36.1198 14.873C36.0481 14.8077 35.9803 14.7552 35.9099 14.697C35.8216 14.624 35.7339 14.5504 35.6405 14.482C35.5765 14.4346 35.5093 14.3917 35.4433 14.3476C35.3397 14.2772 35.2353 14.2074 35.1233 14.1428C35.1003 14.1293 35.0798 14.1133 35.0593 14.0999C35.0107 14.0717 34.9595 14.0506 34.9096 14.0237C34.8059 13.968 34.7016 13.9136 34.596 13.8644C34.507 13.8221 34.4161 13.7844 34.3246 13.7472C34.2331 13.7101 34.1461 13.6749 34.0558 13.6429C33.9496 13.6054 33.8429 13.5708 33.7358 13.5392C33.6565 13.5156 33.5777 13.4932 33.4977 13.4752C33.3832 13.4464 33.2673 13.4215 33.1515 13.3991C33.0728 13.3844 32.9934 13.3703 32.9147 13.3581C32.8014 13.3415 32.6881 13.328 32.5736 13.3172C32.4857 13.3086 32.398 13.3022 32.3105 13.298C32.2077 13.2928 32.1047 13.2903 32.0014 13.2903C31.8997 13.2903 31.7985 13.2903 31.6968 13.298C31.6078 13.3024 31.5182 13.3088 31.4286 13.3172C31.3166 13.328 31.204 13.3408 31.0926 13.3581C31.012 13.3703 30.9313 13.3844 30.8513 13.3997C30.7361 13.4215 30.622 13.4464 30.5089 13.4746C30.4277 13.4951 30.347 13.5181 30.2664 13.5418C30.1597 13.5734 30.053 13.6075 29.9464 13.6442C29.8542 13.6768 29.7627 13.7133 29.6718 13.7504C29.5809 13.7876 29.4939 13.824 29.4069 13.865C29.2987 13.9156 29.1918 13.9712 29.0869 14.0282C29.0389 14.0544 28.9896 14.0749 28.9422 14.1024C28.9198 14.1152 28.9 14.1306 28.8782 14.1434C28.7656 14.2074 28.6574 14.2816 28.5512 14.354C28.4872 14.3962 28.4232 14.4372 28.3637 14.482C28.2657 14.5543 28.1717 14.6311 28.0795 14.7085C28.0155 14.7623 27.9515 14.8141 27.8875 14.8711C27.8088 14.9421 27.7352 15.0176 27.6609 15.0919C27.5867 15.1661 27.515 15.232 27.451 15.305C27.387 15.378 27.3352 15.442 27.2776 15.5111C27.2046 15.6 27.1304 15.689 27.0619 15.7824C27.0133 15.8464 26.9697 15.9162 26.9243 15.9834C26.8552 16.0852 26.7867 16.1882 26.7233 16.2957C25.594 18.199 25.5774 20.563 26.6798 22.482L32.0027 31.7018L37.3249 22.482C38.425 20.5672 38.4104 18.2088 37.2865 16.3079Z" fill="#4BDB4B"/>
</svg>

<svg width="64" height="64" fill="none" xmlns="http://www.w3.org/2000/svg"><rect width="64" height="64" rx="4" fill="#1E1E1E"/><path opacity=".4" d="M50.205 38.683A6.139 6.139 0 1139.56 44.8L26.677 22.487a6.139 6.139 0 0110.645-6.118l12.883 22.314z" fill="#4BDB4B"/><path opacity=".8" d="M24.443 44.8a6.14 6.14 0 01-10.648-6.118L26.677 16.37a6.14 6.14 0 1110.646 6.118L24.443 44.8z" fill="#4BDB4B"/><path d="M37.286 16.308a6.168 6.168 0 00-.225-.351c-.038-.056-.074-.112-.114-.166a5.739 5.739 0 00-.24-.3c-.05-.06-.098-.122-.15-.18-.074-.082-.152-.158-.23-.236-.077-.077-.136-.137-.207-.202-.072-.065-.14-.118-.21-.176-.088-.073-.176-.147-.27-.215-.063-.047-.13-.09-.197-.134a5.113 5.113 0 00-.32-.205c-.023-.014-.043-.03-.064-.043-.048-.028-.1-.05-.15-.076a5.136 5.136 0 00-.585-.277 6.405 6.405 0 00-.827-.272 6.415 6.415 0 00-.923-.158A5.322 5.322 0 0032 13.29c-.101 0-.202 0-.304.008a6.107 6.107 0 00-2.025.452 5.515 5.515 0 00-.585.278c-.048.026-.097.047-.145.074-.022.013-.042.029-.064.041-.112.064-.22.139-.327.211-.064.042-.128.083-.187.128-.098.072-.192.15-.285.227-.064.053-.128.105-.192.162-.078.071-.152.147-.226.22-.074.075-.146.141-.21.214-.064.073-.116.137-.173.206-.073.089-.148.178-.216.271-.049.064-.092.134-.138.201a6.135 6.135 0 00-.244 6.499l5.323 9.22 5.322-9.22a6.13 6.13 0 00-.039-6.174z" fill="#4BDB4B"/></svg>
